X: 438
T: Santian bujian meimei de mian
%%abc-version 2.0
%%abcx-abcm2ps-target-version 5.9.1 (29 Sep 2008)
%%abc-creator hum2abc beta
%%abcx-conversion-date 2013/10/02 07:52:30
%%abc-edited-by Helmut Schaffrath
%%humdrum-veritas 4030346374
%%humdrum-veritas-data 3563927655
%%continueall 1
%%barnumbers 0
L: 1/8
M: 2/4
K: Bb
f' d' c' f' [I:setbarnb 1]| 
c' g f d | 
f g b d | 
c4 | 
f' d' c' f' | 
c' g f d | 
f g f d | 
f g f d | 
f gc'2 | 
f'/ c'/b3 | 
gf3 |]  



